assets/svgs/icon-eye.svg

<svg width="32" height="32" viewBox="0 0 32 32" fill="none" xmlns="http://www.w3.org/2000/svg" class="svg__icon-eye">
  <path fill-rule="evenodd" clip-rule="evenodd"
    d="M8.43448 10.9832c-1.94692 1.8001-3.22546 3.8333-3.73727 4.728-.02717.0475-.02716.0913 0 .1387.51181.8948 1.79035 2.928 3.73727 4.7281 1.94802 1.8011 4.49512 3.3065 7.56572 3.3065 3.0705 0 5.6176-1.5054 7.5657-3.3065 1.9469-1.8001 3.2254-3.8333 3.7372-4.7281.0272-.0474.0272-.0912 0-.1387-.5118-.8947-1.7903-2.9279-3.7372-4.728-1.9481-1.80118-4.4952-3.30653-7.5657-3.30653-3.0706 0-5.6177 1.50535-7.56572 3.30653ZM7.29622 9.75207C9.41734 7.79093 12.3524 6 16.0002 6c3.6477 0 6.5828 1.79093 8.7039 3.75207 2.1223 1.96223 3.4999 4.15733 4.0544 5.12663.3222.5633.3222 1.2405 0 1.8038-.5545.9693-1.9321 3.1644-4.0544 5.1266-2.1211 1.9611-5.0562 3.752-8.7039 3.752-3.6478 0-6.58286-1.7909-8.70398-3.752-2.12225-1.9622-3.4999-4.1573-4.05438-5.1266-.32223-.5633-.32223-1.2405 0-1.8038.55448-.9693 1.93213-3.1644 4.05438-5.12663Zm8.70358 9.94063c2.1607 0 3.9122-1.7515 3.9122-3.9122s-1.7515-3.9122-3.9122-3.9122-3.9122 1.7515-3.9122 3.9122 1.7515 3.9122 3.9122 3.9122Zm5.5889-3.9122c0 3.0867-2.5022 5.5889-5.5889 5.5889-3.0867 0-5.5889-2.5022-5.5889-5.5889 0-3.0867 2.5022-5.5889 5.5889-5.5889 3.0867 0 5.5889 2.5022 5.5889 5.5889Z"
    fill="#0B6AB7" class="svg__fill--primary-blue-03"/>
</svg>

<svg width="32" height="32" viewBox="0 0 32 32" fill="none" xmlns="http://www.w3.org/2000/svg" class="svg__icon-eye">
<path fill-rule="evenodd" clip-rule="evenodd" d="M8.43443 10.9832C6.48751 12.7833 5.20898 14.8165 4.69717 15.7112C4.67 15.7587 4.67 15.8025 4.69717 15.8499C5.20898 16.7447 6.48751 18.7779 8.43443 20.578C10.3825 22.3791 12.9296 23.8845 16.0001 23.8845C19.0707 23.8845 21.6178 22.3791 23.5658 20.578C25.5127 18.7779 26.7913 16.7447 27.3031 15.8499C27.3302 15.8025 27.3302 15.7587 27.3031 15.7112C26.7913 14.8165 25.5127 12.7833 23.5658 10.9832C21.6178 9.18202 19.0707 7.67667 16.0001 7.67667C12.9296 7.67667 10.3825 9.18202 8.43443 10.9832ZM7.29618 9.75207C9.41729 7.79093 12.3524 6 16.0001 6C19.6479 6 22.583 7.79093 24.7041 9.75207C26.8263 11.7143 28.204 13.9094 28.7585 14.8787C29.0807 15.442 29.0807 16.1192 28.7585 16.6825C28.204 17.6518 26.8263 19.8469 24.7041 21.8091C22.583 23.7702 19.6479 25.5611 16.0001 25.5611C12.3524 25.5611 9.41729 23.7702 7.29618 21.8091C5.17392 19.8469 3.79627 17.6518 3.24179 16.6825C2.91957 16.1192 2.91957 15.442 3.24179 14.8787C3.79627 13.9094 5.17392 11.7143 7.29618 9.75207ZM15.9997 19.6927C18.1604 19.6927 19.912 17.9412 19.912 15.7805C19.912 13.6198 18.1604 11.8683 15.9997 11.8683C13.8391 11.8683 12.0875 13.6198 12.0875 15.7805C12.0875 17.9412 13.8391 19.6927 15.9997 19.6927ZM21.5886 15.7805C21.5886 18.8672 19.0864 21.3694 15.9997 21.3694C12.9131 21.3694 10.4109 18.8672 10.4109 15.7805C10.4109 12.6938 12.9131 10.1916 15.9997 10.1916C19.0864 10.1916 21.5886 12.6938 21.5886 15.7805Z" fill="#0B6AB7" class=" svg__fill--primary-blue-03"/>
</svg>
